X:0089
T:"The Coolin" (with variations)     (air)      0089
C:after Sg't. J. O'Neill
C:slow  (PART ONE OF THREE)
B:O'Neill's Music Of Ireland (The 1850)   Lyon & Healy, Chicago   1903 ed.
Z:FROM O'NEILL'S TO NOTEWORTHY, FROM NOTEWORTHY TO ABC, MIDI AND .TXT BY VINCE BRENNAN 6-21-03 (HTTP://WWW.SOSYOURMOM.COM)
Q:1/4=70
I:abc2nwc
M:3/4L:1/8
K:G
"_vb"(de/2f/2)|g2(g3/2b/2) (b/2a/2)(g/2f/2)|g2d2 (3(GBd)|(g3/2f/2) (ga/2b/2) (a3/2g/2)|g2f2g3/2f/2|
(e2-ef/2g/2) (.a/2.g/2.f/2.e/2)|d2(B3/2d/2) (g3/2d/2)|(f/2e/2d/2c/2) (B3/2G/2) (A3/2G/2)|G4||
(d3/2c/2)|(B3/2A/2) (G3/2A/2) (B3/2^c/2)|(d3/2^c/2) (d3/2e/2) (f3/2d/2)|g3/2f/2 g(a/2b/2) (a3/2g/2)|g2f2(g3/2f/2)|
e2-e(f/2g/2) (.a/2.g/2.f/2.e/2)|(d3/2c/2) (B3/2d/2) (g3/2d/2)|(f/2e/2d/2c/2) (B3/2G/2) (A3/2G/2)|G4||
(de/2f/2)|g zg2(ag)|f zed (de/2f/2)|g zg2(ba/2g/2)|f zf2 {a}gf|
{^d}e4 (=dB)|{^c}d4 (Bd/2e/2)|(gd).c.B A3/2G/2|G4(de/2f/2)||
g zg2(ba/2g/2)|f z(ed) (d/2e/2f)|g zg2(ba/2g/2)|f zf2 {f}ed|
e z{^d}e2 {e}=dB|d z{^c}d2 (Bd/2e/2)|(gd).c.B A3/2G/2|G4(GA/2B/2)||
d z{c}d2(e/2d/2B)|d z{c}d2 (d/2e/2f)|g z"^>"{f}g2 (ag)|f z"^>"f2gf|
{^d}e4 (=dB)|{^c}d4 (Bd/2e/2)|(gd).c.B TRA3/2G/2|G4(GA/2B/2)||
d z"^>"e2({e}d3/2B/2)|d z({c}B/2A/2G) G2|g z(ga/2b/2) (ag)|f zf2 {f}(ed)|
e ze2.d.B|(.d.B) G2(.B.d)|edcB (A3/2G/2)|G4|]
